X:0
T:Angels From Heaven
M:4/4
L:1/8
K:C
V:1
z8|z8|[B,G]2[B,G]2^F[B,G]2D2|[DB]2[DB]2[CA]2[DB]2G2|[GB]2[^Fe]2d4|[GB]2[^Fe]2d4|d2ded2[GB]2|c2cdc2[^FA]2|B2A2d4|[^CGB]2[C^FA]2[B,DG]2|[B,G]2[B,G]2[A,^F]2[B,G]2D2|[DB]2[DB]2[CA]2[DB]2G2|[GB]2[^Fe]2d4|[GB]2[^Fe]2d4|d2ded2[GB]2|c2cdc2[^FA]2|B2A2d4|[^CGB]2[C^FA]2[B,DG]2|]
V:2
B2A2d4|[^CGB]2[C^FA]2[B,DG]2|B,2B,A,B,2D2|D2DCD2G2|G2^F2G2F2|G2^F2G2F2|B6G2|A6^F2|^F4GFED|[^CGB]2[C^FA]2[B,DG]2|B,2B,A,B,2D2|D2DCD2G2|G2^F2G2F2|G2^F2G2F2|B6G2|A6^F2|^F4GFED|[^CGB]2[C^FA]2[B,DG]2|]
V:3
z8|z8|G,,2D,2G,4|G,,2D,2G,2B,2|[G,D]2[A,C]2[B,D]2[A,C]2|[G,D]2[A,C]2[B,D]2[A,C]2|G,2^F,2E,2D,2|A,2G,2^F,2D,2|D2C2B,4|A,2D,2G,4|G,,2D,2G,4|G,,2D,2G,2B,2|[G,D]2[A,C]2[B,D]2[A,C]2|[G,D]2[A,C]2[B,D]2[A,C]2|G,2^F,2E,2D,2|A,2G,2^F,2D,2|D2C2B,4|A,2D,2G,4|]
V:4
z8|z8|z8|z8|z8|z8|z8|z8|z8|z8|z8|z8|z8|z8|z2z2z2z2|z2z2z2z2|z2z2z2z2|z2z2z2z2|]
